svgs/light/arrows-cross.svg

<svg xmlns="http://www.w3.org/2000/svg" viewBox="0 0 448 512"><!--! Font Awesome Pro 6.3.0 by @fontawesome - https://fontawesome.com License - https://fontawesome.com/license (Commercial License) Copyright 2023 Fonticons, Inc. --><path d="M429.3 288.4C421.5 289.7 416 297.1 416 305v120.5L291.9 301.4c-6.248-6.25-16.38-6.352-22.63-.1016s-6.246 16.48 .002 22.73l124.1 124.1H272.8c-7.969 0-15.35 5.453-16.62 13.32C254.6 471.5 262.3 480.2 272 480.2h160c8.836 0 16-7.164 16-16v-160C448 294.5 439.4 286.8 429.3 288.4zM156.1 210.9C162.4 217.2 172.5 217.1 178.8 210.8s6.247-16.28-.001-22.53L27.91 37.48c-5.635-5.637-14.71-7-21.17-2.34C-1.5 41.08-2.184 52.64 4.688 59.51L156.1 210.9zM432 32h-160C263.2 32 256 39.16 256 48S263.2 64 272 64h121.4L4.688 452.7c-6.25 6.25-6.25 16.38 0 22.62s16.38 6.25 22.62 0L416 86.63V208C416 216.8 423.2 224 432 224S448 216.8 448 208v-160C448 39.16 440.8 32 432 32z"/></svg>

<svg xmlns="http://www.w3.org/2000/svg" viewBox="0 0 448 512"><!-- Font Awesome Pro 6.0.0-alpha2 by @fontawesome - https://fontawesome.com License - https://fontawesome.com/license (Commercial License) --><path d="M429.322 288.414C421.455 289.684 416 297.062 416 305.031V425.57L291.875 301.445C285.627 295.195 275.498 295.195 269.25 301.445S263.002 317.82 269.25 324.07L393.375 448.195H272.834C264.865 448.195 257.488 453.648 256.217 461.516C254.596 471.547 262.279 480.195 272 480.195H432C440.836 480.195 448 473.031 448 464.195V304.195C448 294.477 439.352 286.789 429.322 288.414ZM156.125 210.945C162.373 217.195 172.502 217.195 178.75 210.945S184.998 194.57 178.75 188.32L27.91 37.48C22.275 31.844 13.203 30.48 6.738 35.141C-1.5 41.078 -2.184 52.637 4.688 59.508L156.125 210.945ZM432 32H272C263.156 32 256 39.156 256 48S263.156 64 272 64H393.375L4.688 452.688C-1.563 458.938 -1.563 469.063 4.688 475.312S21.063 481.562 27.312 475.312L416 86.625V208C416 216.844 423.156 224 432 224S448 216.844 448 208V48C448 39.156 440.844 32 432 32Z"/></svg>
